packages/astro-components-stencil/src/icons/insert-invitation.svg

<svg xmlns="http://www.w3.org/2000/svg" viewBox="0 0 24 24"><g xmlns="http://www.w3.org/2000/svg" id="insert-invitation" fill-rule="nonzero">
            <path d="M16 12h-3c-.55 0-1 .45-1 1v3c0 .55.45 1 1 1h3c.55 0 1-.45 1-1v-3c0-.55-.45-1-1-1zm0-10v1H8V2c0-.55-.45-1-1-1s-1 .45-1 1v1H5c-1.11 0-1.99.9-1.99 2L3 19a2 2 0 002 2h14c1.1 0 2-.9 2-2V5c0-1.1-.9-2-2-2h-1V2c0-.55-.45-1-1-1s-1 .45-1 1zm2 17H6c-.55 0-1-.45-1-1V8h14v10c0 .55-.45 1-1 1z"/>
        </g></svg>

<svg width="24" height="24" viewBox="0 0 24 24" fill="none" xmlns="http://www.w3.org/2000/svg">
<path fill-rule="evenodd" clip-rule="evenodd" d="M16 2V3H8V2C8 1.45 7.55 1 7 1C6.45 1 6 1.45 6 2V3H5C3.89 3 3.01 3.9 3.01 5L3 19C3 20.1 3.89 21 5 21H19C20.1 21 21 20.1 21 19V5C21 3.9 20.1 3 19 3H18V2C18 1.45 17.55 1 17 1C16.45 1 16 1.45 16 2ZM16 12H13C12.45 12 12 12.45 12 13V16C12 16.55 12.45 17 13 17H16C16.55 17 17 16.55 17 16V13C17 12.45 16.55 12 16 12ZM6 19H18C18.55 19 19 18.55 19 18V8H5V18C5 18.55 5.45 19 6 19Z" fill="black"/>
</svg>
